svg/content_save_off_outline.svg

<svg xmlns="http://www.w3.org/2000/svg" viewBox="0 0 24 24"><path d="m8.2 5-2-2H17l4 4v10.8l-2-2V7.83L16.17 5zm6.8 5V6H9.2l4 4zm7.11 11.46-1.27 1.27L19.1 21H5a2 2 0 0 1-2-2V4.9L1.11 3l1.28-1.27zm-5-2.46-2.52-2.5a2.996 2.996 0 1 1-4.09-4.09L8.11 10H6V7.89l-1-1V19z"/></svg>

<?xml version="1.0" encoding="UTF-8"?><!DOCTYPE svg PUBLIC "-//W3C//DTD SVG 1.1//EN" "http://www.w3.org/Graphics/SVG/1.1/DTD/svg11.dtd"><svg xmlns="http://www.w3.org/2000/svg" xmlns:xlink="http://www.w3.org/1999/xlink" version="1.1" id="mdi-content-save-off-outline" width="24" height="24" viewBox="0 0 24 24"><path d="M8.2 5L6.2 3H17L21 7V17.8L19 15.8V7.83L16.17 5H8.2M15 10V6H9.2L13.2 10H15M22.11 21.46L20.84 22.73L19.1 21C19.07 21 19.03 21 19 21H5C3.89 21 3 20.1 3 19V5C3 4.97 3 4.93 3 4.9L1.11 3L2.39 1.73L22.11 21.46M17.11 19L14.59 16.5C14.08 17.39 13.12 18 12 18C10.34 18 9 16.66 9 15C9 13.88 9.61 12.92 10.5 12.41L8.11 10H6V7.89L5 6.89V19H17.11Z" /></svg>
